symbols/web/headset_mic/materialsymbolsoutlined/headset_mic_wght100_48px.svg

<svg xmlns="http://www.w3.org/2000/svg" height="48" width="48"><path d="M24.05 41.8v-1.1H36.7q.7 0 1.15-.45.45-.45.45-1.15v-1.6h-5.4V26.65h5.4v-4.6q0-5.95-4.175-10.15T24.05 7.7q-5.95 0-10.15 4.2T9.7 22.05v4.6h5.4V37.5h-3.8q-1.15 0-1.925-.775Q8.6 35.95 8.6 34.8V22.05q0-3.2 1.2-6.025t3.3-4.925q2.1-2.1 4.925-3.3 2.825-1.2 6.025-1.2t6 1.2q2.8 1.2 4.875 3.3Q37 13.2 38.2 16.025q1.2 2.825 1.2 6.025V39.1q0 1.15-.775 1.925-.775.775-1.925.775ZM11.3 36.4H14v-8.65H9.7v7.05q0 .65.45 1.125t1.15.475Zm22.7 0h4.3v-8.65H34Zm4.3 0H34h4.3Zm-24.3 0H9.7 14Z"/></svg>

<svg xmlns="http://www.w3.org/2000/svg" height="48" width="48"><path d="M24.05 41.8V40.7H36.7Q37.4 40.7 37.85 40.25Q38.3 39.8 38.3 39.1V37.5H32.9V26.65H38.3V22.05Q38.3 16.1 34.125 11.9Q29.95 7.7 24.05 7.7Q18.1 7.7 13.9 11.9Q9.7 16.1 9.7 22.05V26.65H15.1V37.5H11.3Q10.15 37.5 9.375 36.725Q8.6 35.95 8.6 34.8V22.05Q8.6 18.85 9.8 16.025Q11 13.2 13.1 11.1Q15.2 9 18.025 7.8Q20.85 6.6 24.05 6.6Q27.25 6.6 30.05 7.8Q32.85 9 34.925 11.1Q37 13.2 38.2 16.025Q39.4 18.85 39.4 22.05V39.1Q39.4 40.25 38.625 41.025Q37.85 41.8 36.7 41.8ZM11.3 36.4H14V27.75H9.7V34.8Q9.7 35.45 10.15 35.925Q10.6 36.4 11.3 36.4ZM34 36.4H38.3V27.75H34ZM38.3 36.4H34H38.3ZM14 36.4H11.3Q10.6 36.4 10.15 36.4Q9.7 36.4 9.7 36.4H14Z"/></svg>
